src/assets/images/skills/nextjs.svg

<?xml version="1.0" encoding="utf-8"?>
<!-- Uploaded to: SVG Repo, www.svgrepo.com, Generator: SVG Repo Mixer Tools -->
<svg width="800px" height="800px" viewBox="0 0 24 24" fill="none" xmlns="http://www.w3.org/2000/svg">
<g clip-path="url(#clip0)">
<path d="M11.2141 0.00645944C11.1625 0.0111515 10.9982 0.0275738 10.8504 0.039304C7.44164 0.346635 4.24868 2.18593 2.22639 5.01291C1.10029 6.58476 0.380059 8.36775 0.107918 10.2563C0.0117302 10.9156 0 11.1103 0 12.0041C0 12.898 0.0117302 13.0927 0.107918 13.7519C0.760117 18.2587 3.96716 22.0452 8.31672 23.4481C9.0956 23.6991 9.91672 23.8704 10.8504 23.9736C11.2141 24.0135 12.7859 24.0135 13.1496 23.9736C14.7613 23.7953 16.1267 23.3965 17.4733 22.7091C17.6798 22.6035 17.7196 22.5754 17.6915 22.5519C17.6727 22.5378 16.793 21.3578 15.7372 19.9314L13.8182 17.339L11.4135 13.7801C10.0903 11.8235 9.00176 10.2235 8.99238 10.2235C8.98299 10.2211 8.97361 11.8024 8.96891 13.7331C8.96188 17.1138 8.95953 17.2499 8.9173 17.3296C8.85631 17.4446 8.80938 17.4915 8.71085 17.5431C8.63578 17.5807 8.57009 17.5877 8.21584 17.5877H7.80997L7.70205 17.5197C7.63167 17.4751 7.58006 17.4164 7.54487 17.3484L7.4956 17.2428L7.50029 12.539L7.50733 7.83285L7.58006 7.74136C7.6176 7.69209 7.69736 7.62875 7.75367 7.59825C7.84985 7.55133 7.88739 7.54664 8.29325 7.54664C8.77185 7.54664 8.85161 7.5654 8.97595 7.70147C9.01114 7.73901 10.3132 9.7003 11.871 12.0628C13.4287 14.4252 15.5589 17.651 16.6053 19.2346L18.5056 22.1132L18.6018 22.0499C19.4534 21.4962 20.3543 20.7079 21.0674 19.8868C22.5853 18.1437 23.5636 16.0182 23.8921 13.7519C23.9883 13.0927 24 12.898 24 12.0041C24 11.1103 23.9883 10.9156 23.8921 10.2563C23.2399 5.74957 20.0328 1.96306 15.6833 0.560125C14.9161 0.311445 14.0997 0.140184 13.1848 0.036958C12.9595 0.0134976 11.4088 -0.0123089 11.2141 0.00645944ZM16.1267 7.26511C16.2393 7.32142 16.3308 7.42933 16.3636 7.54194C16.3824 7.60294 16.3871 8.90734 16.3824 11.8469L16.3754 16.0651L15.6317 14.9249L14.8856 13.7848V10.7185C14.8856 8.73608 14.895 7.62171 14.9091 7.56775C14.9466 7.43637 15.0287 7.33315 15.1413 7.27215C15.2375 7.22288 15.2727 7.21819 15.6411 7.21819C15.9883 7.21819 16.0493 7.22288 16.1267 7.26511Z" fill="#000000"/>
</g>
<defs>
<clipPath id="clip0">
<rect width="24" height="24" fill="white"/>
</clipPath>
</defs>
</svg>

<!DOCTYPE svg PUBLIC "-//W3C//DTD SVG 1.1//EN" "http://www.w3.org/Graphics/SVG/1.1/DTD/svg11.dtd">
<!-- Uploaded to: SVG Repo, www.svgrepo.com, Transformed by: SVG Repo Mixer Tools -->
<svg fill="#66D1D0" width="800px" height="800px" viewBox="0 0 24.00 24.00" role="img" xmlns="http://www.w3.org/2000/svg" stroke="#66D1D0" stroke-width="0.00024000000000000003">
<g id="SVGRepo_bgCarrier" stroke-width="0"/>
<g id="SVGRepo_tracerCarrier" stroke-linecap="round" stroke-linejoin="round"/>
<g id="SVGRepo_iconCarrier">
<title>Next.js icon</title>
<path d="M17.813 22.502c-.089.047-.084.066.005.021a.228.228 0 0 0 .07-.047c0-.016-.002-.014-.075.026zm.178-.094c-.042.033-.042.035.009.009.028-.014.052-.03.052-.035 0-.019-.012-.014-.061.026zm.117-.071c-.042.033-.042.035.009.009.028-.014.052-.03.052-.035 0-.019-.012-.014-.061.026zm.117-.07c-.042.033-.042.035.009.009.028-.014.052-.03.052-.035 0-.019-.012-.014-.061.026zm.162-.105c-.082.052-.108.087-.035.047.052-.03.136-.094.122-.096a.466.466 0 0 0-.087.049zM11.214.006c-.052.005-.216.021-.364.033-3.408.307-6.601 2.146-8.623 4.973a11.876 11.876 0 0 0-2.118 5.243c-.096.659-.108.854-.108 1.748s.012 1.088.108 1.748c.652 4.506 3.859 8.292 8.208 9.695.779.251 1.6.422 2.533.525.364.04 1.935.04 2.299 0 1.611-.178 2.977-.577 4.323-1.264.206-.106.246-.134.218-.157a231.73 231.73 0 0 1-1.954-2.62l-1.919-2.592-2.404-3.558a332.01 332.01 0 0 0-2.421-3.556c-.009-.002-.019 1.579-.023 3.509-.007 3.38-.009 3.516-.052 3.596a.424.424 0 0 1-.206.213c-.075.038-.141.045-.495.045H7.81l-.108-.068a.442.442 0 0 1-.157-.171l-.049-.106.005-4.703.007-4.705.073-.091a.637.637 0 0 1 .174-.143c.096-.047.134-.052.54-.052.479 0 .558.019.683.155a466.83 466.83 0 0 1 2.895 4.361c1.558 2.362 3.687 5.587 4.734 7.171l1.9 2.878.096-.063a12.34 12.34 0 0 0 2.465-2.163 11.94 11.94 0 0 0 2.824-6.134c.096-.659.108-.854.108-1.748s-.012-1.088-.108-1.748c-.652-4.506-3.859-8.292-8.208-9.695a12.552 12.552 0 0 0-2.498-.523c-.225-.023-1.776-.049-1.97-.03zm4.912 7.258a.471.471 0 0 1 .237.277c.019.061.023 1.365.019 4.304l-.007 4.218-.744-1.14-.746-1.14v-3.066c0-1.982.009-3.096.023-3.15a.484.484 0 0 1 .232-.296c.096-.049.131-.054.5-.054.347 0 .408.005.486.047z"/>
</g>
</svg>
